X: 1
T:Mazurka
M:3/4
L:1/8
Q:150
C:Gilles Chabenat
K:Dm
D E>D|A2 A>B c>d|A4 B>A|G2 A>GF>E|F2 D2 E>D|!
|A2 A>B c>d|A4 B>A|G2 A>GF>G|[1E3:|[2 E3 A d>c|!
|:B2 B>AB>c|d4 c>B|A2 A>GA>B|A4 d>c|!
B2 B>AB>c|d4 c>B|A2 G>FE>F|[1E4 d>c:|[2D3|!
